src/images/crypto-icon-svg/fair.svg

<svg xmlns="http://www.w3.org/2000/svg" width="32" height="32" viewBox="0 0 32 32">
  <g fill="none" fill-rule="evenodd">
    <circle cx="16" cy="16" r="16" fill="#C99705"/>
    <path fill="#FFF" d="M8,24.253546 C8.0144017,24.1952074 8.02821614,24.1366821 8.04328898,24.0785035 C8.1977926,23.4817858 8.60436784,23.1137565 9.20985426,22.9470329 C9.82518418,22.7776162 10.4118785,22.8424873 10.9454683,23.2039841 C11.1200784,23.3222344 11.2515393,23.4726937 11.3371105,23.6615476 C11.3605447,23.7132205 11.4083919,23.7548681 11.4450253,23.8011017 C11.4849866,23.755588 11.5423137,23.7160201 11.5620846,23.663574 C11.6934336,23.3152754 11.8400233,22.9700697 11.9387378,22.6130789 C12.4746766,20.6745729 12.9982831,18.7329207 13.5253293,16.792175 C13.5461069,16.7157589 13.5587747,16.6373697 13.5784897,16.5445292 C13.4379683,16.5445292 13.3085208,16.5462623 13.1791572,16.5442092 C12.7370392,16.5373035 12.2931594,16.5501551 11.8532784,16.5161864 C11.2543077,16.4698995 10.8466419,16.1014703 10.8356798,15.5342685 C10.826088,15.0384702 11.1192953,14.6572428 11.679731,14.5600828 C12.0724639,14.4920122 12.4839888,14.5180353 12.8872922,14.5111829 C13.2735373,14.5046238 13.6600061,14.5117962 14.0462791,14.5067569 C14.0823812,14.5062769 14.1411066,14.467269 14.1500273,14.4359933 C14.2482105,14.0916141 14.3388712,13.7452886 14.4303989,13.3992296 C14.4357681,13.3789657 14.431098,13.3563022 14.431098,13.3218003 C13.9931467,13.3218003 13.5598933,13.3346519 13.1279543,13.3176942 C12.7885217,13.3043627 12.4598275,13.2269067 12.1757646,13.0310137 C11.8231607,12.7878206 11.7259842,12.4409084 11.7832834,12.0572014 C11.8413097,11.6686949 12.0901374,11.4092107 12.4882953,11.3001324 C12.6284532,11.2617377 12.7796011,11.2456866 12.9259671,11.2445401 C13.5503854,11.2396874 14.1750275,11.2385676 14.799334,11.2493661 C14.950398,11.2519791 15.0168975,11.2026792 15.0774405,11.0768032 C15.2854961,10.6442762 15.488574,10.2077498 15.730103,9.79210041 C16.1701237,9.03487151 16.6859001,8.3241162 17.3263981,7.70649471 C18.1693866,6.89362015 19.1621808,6.31833949 20.3520404,6.10711528 C21.1413652,5.96697461 21.9381285,5.93300596 22.7136109,6.19926257 C23.1798343,6.3593205 23.5263698,6.65626621 23.7438215,7.08255409 C23.8814346,7.35225023 24.014042,7.61999997 23.9988014,7.9373962 C23.9555963,8.83660552 23.1908243,9.40887326 22.4977253,9.43220338 C21.9657854,9.45009425 21.5082869,9.30560751 21.1539772,8.92075391 C20.8212561,8.55931043 20.7803161,8.1377419 20.9137625,7.68945706 C20.9237738,7.6557817 20.9371128,7.62298623 20.9489418,7.5897908 L20.9219002,7.55483562 C20.8540584,7.59898953 20.7772959,7.63458463 20.719801,7.68873716 C20.412975,7.97797727 20.1725925,8.31481081 19.9706332,8.67641428 C19.5506071,9.42836391 19.2472207,10.2244674 18.9971345,11.0402483 C18.9894723,11.0651515 18.9908985,11.0925611 18.9861725,11.136395 C19.2034004,11.136395 19.4155667,11.1392746 19.6276212,11.1357018 C19.9351743,11.1305292 20.2411893,11.1324222 20.5335018,11.2421671 C20.8910554,11.3764419 21.1642122,11.5954517 21.2361088,11.9696934 C21.3094316,12.3513741 21.2340674,12.6503462 20.8782476,12.9414261 C20.5880605,13.1788333 20.2482084,13.2278399 19.8932276,13.2398383 C19.4187267,13.2558361 18.9437784,13.2599155 18.4690258,13.2679944 C18.4060778,13.2690609 18.356329,13.2673811 18.3375649,13.3481167 C18.2614736,13.6752715 18.1768811,14.0005867 18.0963714,14.3268084 C18.0924005,14.3428061 18.0974341,14.360857 18.0987764,14.3887731 C18.4320568,14.3887731 18.7627365,14.3792811 19.0925493,14.3913328 C19.4484809,14.4043443 19.7763362,14.4969449 20.0350913,14.7534962 C20.3510897,15.066813 20.395665,15.5173642 20.1311492,15.8703288 C20.0449348,15.9854063 19.9423612,16.0892586 19.8487641,16.1994034 C19.6545789,16.4277986 19.3843584,16.5065344 19.0960169,16.5179195 C18.6031433,16.5373835 18.1093749,16.5426894 17.6160539,16.5402098 C17.4824677,16.5395699 17.4291954,16.5791911 17.3993853,16.6975747 C17.2243837,17.392039 17.0556742,18.0882896 16.8620762,18.7780878 C16.472811,20.1650965 16.037712,21.5373073 15.3261844,22.8137446 C14.9812987,23.4325126 14.5590634,23.997368 14.0447411,24.4971924 C13.3016975,25.2192795 12.422495,25.7142512 11.3703043,25.8964928 C10.6521491,26.0208489 9.92786966,26.063883 9.21969775,25.8492726 C8.61958051,25.6674043 8.20506336,25.2939359 8.04502278,24.6951118 C8.0295025,24.6369065 8.01498895,24.5784879 8,24.5201759 L8,24.253546 Z"/>
  </g>
</svg>

<svg xmlns="http://www.w3.org/2000/svg" width="32" height="32"><g fill="none" fill-rule="evenodd"><circle cx="16" cy="16" r="16" fill="#C99705"/><path fill="#FFF" d="M8 24.254l.043-.175c.155-.597.561-.965 1.167-1.132.615-.17 1.202-.105 1.735.257.175.118.307.269.392.458.024.051.071.093.108.14.04-.046.097-.086.117-.138.131-.349.278-.694.377-1.05.536-1.94 1.06-3.881 1.586-5.822.021-.076.034-.155.053-.247-.14 0-.27.001-.399 0-.442-.008-.886.005-1.326-.029-.599-.046-1.006-.415-1.017-.982-.01-.496.283-.877.844-.974.392-.068.804-.042 1.207-.049.387-.006.773 0 1.16-.004.035 0 .094-.04.103-.071.098-.344.189-.69.28-1.037.006-.02.001-.043.001-.077-.438 0-.871.013-1.303-.004-.34-.014-.668-.091-.952-.287-.353-.243-.45-.59-.393-.974.058-.388.307-.648.705-.757.14-.038.292-.054.438-.055.624-.005 1.249-.006 1.873.004.151.003.218-.046.278-.172.208-.433.412-.87.653-1.285.44-.757.956-1.468 1.596-2.086.843-.812 1.836-1.388 3.026-1.599.79-.14 1.586-.174 2.362.092.466.16.812.457 1.03.884.137.27.27.537.255.854-.043.9-.808 1.472-1.501 1.495-.532.018-.99-.126-1.344-.511-.333-.362-.374-.783-.24-1.232.01-.033.023-.066.035-.1l-.027-.034c-.068.044-.145.08-.202.134-.307.289-.547.626-.75.987-.42.752-.723 1.548-.973 2.364-.008.025-.006.053-.01.096.216 0 .429.003.64 0 .308-.005.614-.004.907.106.357.134.63.353.702.728.073.381-.002.68-.358.971-.29.238-.63.287-.985.299-.474.016-.95.02-1.424.028-.063.001-.113 0-.131.08-.077.327-.161.653-.242.979-.004.016.001.034.003.062.333 0 .664-.01.994.002.355.013.683.106.942.362.316.314.36.764.096 1.117-.086.115-.189.22-.282.33-.194.228-.465.307-.753.318-.493.02-.987.025-1.48.022-.134 0-.187.04-.217.158-.175.694-.343 1.39-.537 2.08-.39 1.387-.824 2.76-1.536 4.036a7.251 7.251 0 0 1-1.281 1.683c-.743.722-1.623 1.217-2.675 1.4-.718.124-1.442.167-2.15-.048-.6-.182-1.015-.555-1.175-1.154L8 24.52v-.266z"/></g></svg>
